; generated by Slic3r 0.9.9 on 2013-06-03 at 21:32:30

; layer_height = 0.4
; perimeters = 3
; top_solid_layers = 3
; bottom_solid_layers = 3
; fill_density = 0.4
; perimeter_speed = 30
; infill_speed = 60
; travel_speed = 130
; nozzle_diameter = 0.5
; filament_diameter = 3
; extrusion_multiplier = 1
; perimeters extrusion width = 0.53mm
; infill extrusion width = 0.53mm
; solid infill extrusion width = 0.53mm
; top infill extrusion width = 0.53mm
; first layer extrusion width = 1.00mm

G21 ; set units to millimeters
M107
M104 S200 ; set temperature
G28 ; home all axes
G1 Z5 F5000 ; lift nozzle

M109 S200 ; wait for temperature to be reached
G90 ; use absolute coordinates
G92 E0
M82 ; use absolute distances for extrusion
G1 F1800.000 E-1.00000
G92 E0
G1 Z0.500 F7800.000
G1 X64.697 Y58.421
G1 F1800.000 E1.00000
G1 X65.097 Y58.011 F540.000 E1.03617
G1 X65.517 Y57.621 E1.07236
G1 X66.317 Y57.021 E1.13551
G1 X67.077 Y56.561 E1.19160
G1 X67.617 Y56.311 E1.22918
G1 X68.177 Y56.111 E1.26673
G1 X68.747 Y55.961 E1.30395
G1 X70.907 Y55.571 E1.44255
G1 X71.517 Y55.491 E1.48140
G1 X72.577 Y55.411 E1.54852
G1 X97.287 Y54.581 E3.10973
G1 X97.687 Y54.581 E3.13498
G1 X125.947 Y55.281 E4.92002
G1 X127.157 Y55.321 E4.99647
G1 X136.817 Y55.811 E5.60724
G1 X137.737 Y55.911 E5.66568
G1 X138.837 Y56.181 E5.73720
G1 X139.937 Y56.621 E5.81201
G1 X140.577 Y56.971 E5.85807
G1 X140.887 Y57.161 E5.88103
G1 X141.177 Y57.371 E5.90364
G1 X141.827 Y57.921 E5.95741
G1 X142.047 Y58.131 E5.97661
G1 X142.467 Y58.601 E6.01641
G1 X142.837 Y59.101 E6.05569
G1 X143.257 Y59.781 E6.10616
G1 X143.407 Y60.071 E6.12678
G1 X143.677 Y60.691 E6.16948
G1 X143.877 Y61.331 E6.21182
G1 X144.047 Y62.121 E6.26285
G1 X144.127 Y62.781 E6.30483
G1 X144.137 Y63.441 E6.34651
G1 X138.517 Y136.081 E10.94711
G1 X138.447 Y136.661 E10.98400
G1 X138.337 Y137.271 E11.02314
G1 X138.067 Y138.151 E11.08126
G1 X137.817 Y138.721 E11.12057
G1 X137.457 Y139.391 E11.16859
G1 X136.887 Y140.191 E11.23062
G1 X136.667 Y140.441 E11.25165
G1 X136.137 Y140.971 E11.29898
G1 X135.897 Y141.181 E11.31912
G1 X135.387 Y141.561 E11.35928
G1 X134.847 Y141.901 E11.39957
G1 X134.287 Y142.181 E11.43911
G1 X133.887 Y142.351 E11.46655
G1 X133.267 Y142.561 E11.50789
G1 X132.947 Y142.641 E11.52872
G1 X131.967 Y142.791 E11.59132
G1 X124.307 Y143.421 E12.07665
G1 X92.917 Y145.401 E14.06273
G1 X92.287 Y145.421 E14.10253
G1 X91.327 Y145.401 E14.16316
G1 X90.587 Y145.331 E14.21010
G1 X90.117 Y145.261 E14.24010
G1 X74.987 Y142.531 E15.21092
G1 X66.657 Y140.611 E15.75072
G1 X66.117 Y140.451 E15.78628
G1 X62.067 Y139.081 E16.05625
G1 X61.347 Y138.791 E16.10527
G1 X60.597 Y138.431 E16.15780
G1 X60.107 Y138.151 E16.19344
G1 X59.867 Y137.991 E16.21165
G1 X59.197 Y137.461 E16.26560
G1 X58.777 Y137.061 E16.30222
G1 X58.587 Y136.851 E16.32010
G1 X58.227 Y136.401 E16.35649
G1 X58.067 Y136.171 E16.37418
G1 X57.487 Y135.231 E16.44393
G1 X57.217 Y134.691 E16.48205
G1 X56.997 Y134.131 E16.52005
G1 X56.827 Y133.551 E16.55821
G1 X56.707 Y132.961 E16.59623
G1 X56.637 Y132.361 E16.63438
G1 X55.867 Y103.491 E18.45804
G1 X55.897 Y102.661 E18.51048
G1 X55.967 Y102.111 E18.54549
G1 X63.117 Y61.741 E21.13435
G1 X63.317 Y60.901 E21.18887
G1 X63.407 Y60.631 E21.20685
G1 X63.747 Y59.841 E21.26115
G1 X64.177 Y59.101 E21.31520
G1 X64.612 Y58.524 E21.36080
G1 F1800.000 E20.36080
G92 E0
G1 X80.708 Y66.292 F7800.000
G1 F1800.000 E1.00000
G1 X81.297 Y65.461 F378.000 E1.06430
G1 X82.345 Y64.943 E1.13813
G1 X83.788 Y64.634 E1.23133
G1 X85.664 Y64.464 E1.35028
G1 X88.001 Y64.399 E1.49789
G1 X90.815 Y64.411 E1.67559
G1 X97.918 Y64.560 E2.12426
G1 X101.080 Y64.589 E2.32388
G1 X104.094 Y64.554 E2.51423
G1 X109.575 Y64.423 E2.86041
G1 X111.983 Y64.395 E3.01252
G1 X114.135 Y64.437 E3.14840
G1 X116.005 Y64.585 E3.26686
G1 X117.575 Y64.879 E3.36775
G1 X118.833 Y65.374 E3.45309
G1 X119.735 Y66.153 E3.52833
G1 X120.152 Y67.248 E3.60236
G1 X120.031 Y68.555 E3.68523
G1 X119.357 Y71.011 E3.84604
G1 X118.760 Y72.970 E3.97536
G1 X118.231 Y74.532 E4.07947
G1 X117.770 Y75.761 E4.16237
G1 X116.810 Y78.082 E4.32101
G1 X116.635 Y78.604 E4.35576
G1 X116.525 Y79.114 E4.38870
G1 X116.473 Y79.695 E4.42550
G1 X116.483 Y80.425 E4.47162
G1 X116.569 Y81.553 E4.54303
G1 X110.537 Y89.347 E5.16538
G1 X109.452 Y90.692 E5.27449
G1 X108.492 Y91.814 E5.36772
G1 X107.640 Y92.717 E5.44617
G1 X106.871 Y93.407 E5.51141
G1 X106.154 Y93.888 E5.56588
G1 X105.451 Y94.145 E5.61320
G1 X104.751 Y94.131 E5.65738
G1 X104.139 Y93.834 E5.70034
G1 X102.610 Y92.578 E5.82530
G1 X100.855 Y90.935 E5.97711
G1 X98.911 Y88.972 E6.15154
G1 X96.839 Y86.778 E6.34211
G1 X94.705 Y84.438 E6.54207
G1 X92.573 Y82.043 E6.74458
G1 X88.576 Y77.439 E7.12957
G1 X83.487 Y71.474 E7.62466
G1 X82.154 Y69.875 E7.75612
G1 X81.229 Y68.520 E7.85974
G1 X80.722 Y67.349 E7.94028
G1 X80.710 Y66.426 E7.99857
G1 X80.174 Y65.577 F7800.000
G1 X79.407 Y65.039
G1 X78.915 Y65.735 F540.000 E8.05238
G1 X78.942 Y67.730 E8.17837
G1 X79.658 Y69.385 E8.29225
G1 X80.728 Y70.952 E8.41206
G1 X82.125 Y72.629 E8.54991
G1 X89.160 Y80.850 E9.23313
G1 X91.234 Y83.224 E9.43216
G1 X93.379 Y85.633 E9.63588
G1 X95.531 Y87.992 E9.83748
G1 X97.627 Y90.214 E10.03037
G1 X99.610 Y92.215 E10.20829
G1 X101.432 Y93.920 E10.36585
G1 X103.169 Y95.349 E10.50788
G1 X104.324 Y95.908 E10.58888
G1 X105.749 Y95.937 E10.67888
G1 X106.970 Y95.490 E10.76101
G1 X107.970 Y94.820 E10.83700
G1 X108.887 Y93.996 E10.91486
G1 X109.821 Y93.007 E11.00073
G1 X110.825 Y91.833 E11.09832
G1 X111.935 Y90.458 E11.20990
G1 X118.402 Y82.102 E11.87711
G1 X118.267 Y80.345 E11.98833
G1 X118.260 Y79.762 E12.02517
G1 X118.293 Y79.382 E12.04925
G1 X118.359 Y79.078 E12.06888
G1 X118.485 Y78.704 E12.09380
G1 X119.433 Y76.412 E12.25047
G1 X119.913 Y75.132 E12.33680
G1 X120.460 Y73.517 E12.44446
G1 X121.072 Y71.507 E12.57709
G1 X121.794 Y68.876 E12.74937
G1 X121.968 Y67.000 E12.86834
G1 X120.999 Y64.458 E13.04014
G1 X124.362 Y64.405 E13.25249
G1 X125.945 Y64.412 E13.35248
G1 X125.273 Y65.345 E13.42511
G1 X124.849 Y66.013 E13.47504
G1 X124.509 Y66.633 E13.51975
G1 X124.242 Y67.205 E13.55959
G1 X124.009 Y67.797 E13.59976
G1 X123.633 Y68.943 E13.67589
G1 X123.536 Y69.127 E13.68908
G1 X123.261 Y69.481 E13.71735
G1 X122.815 Y70.336 E13.77827
G1 X122.647 Y70.778 E13.80813
G1 X122.526 Y71.327 E13.84361
G1 X122.499 Y71.930 E13.88172
G1 X122.570 Y72.532 E13.92002
G1 X122.723 Y73.112 E13.95787
G1 X122.940 Y73.678 E13.99615
G1 X123.218 Y74.253 E14.03647
G1 X123.363 Y74.510 E14.05513
G1 X123.014 Y75.434 E14.11746
G1 X122.531 Y76.878 E14.21365
G1 X122.307 Y77.658 E14.26489
G1 X122.100 Y78.483 E14.31858
G1 X121.913 Y79.357 E14.37501
G1 X121.749 Y80.284 E14.43449
G1 X121.612 Y81.271 E14.49739
G1 X121.502 Y82.322 E14.56410
G1 X121.453 Y83.025 E14.60863
G1 X119.143 Y88.312 E14.97294
G1 X117.090 Y92.889 E15.28972
G1 X116.193 Y94.820 E15.42414
G1 X115.370 Y96.532 E15.54408
G1 X114.612 Y98.040 E15.65067
G1 X113.912 Y99.360 E15.74505
G1 X113.260 Y100.507 E15.82835
G1 X112.649 Y101.497 E15.90177
G1 X112.071 Y102.346 E15.96664
G1 X110.376 Y104.575 E16.14349
G1 X112.058 Y106.490 E16.30445
G1 X111.055 Y108.066 E16.42238
G1 X110.641 Y108.750 E16.47290
G1 X109.865 Y110.130 E16.57285
G1 X109.165 Y111.556 E16.67317
G1 X108.846 Y112.297 E16.72410
G1 X108.493 Y113.205 E16.78563
G1 X108.035 Y115.521 E16.93466
G1 X107.723 Y117.310 E17.04938
G1 X107.513 Y118.801 E17.14442
G1 X107.395 Y120.048 E17.22352
G1 X107.365 Y121.111 E17.29070
G1 X107.427 Y122.047 E17.34993
G1 X107.591 Y122.889 E17.40408
G1 X107.850 Y123.622 E17.45319
G1 X108.152 Y124.206 E17.49466
G1 X108.614 Y124.952 E17.55011
G1 X108.925 Y125.532 E17.59166
G1 X110.527 Y127.472 E17.75053
G1 X111.800 Y128.916 E17.87206
G1 X112.903 Y130.062 E17.97252
G1 X113.879 Y130.959 E18.05619
G1 X114.776 Y131.649 E18.12767
G1 X115.643 Y132.163 E18.19130
G1 X116.501 Y132.503 E18.24962
G1 X117.305 Y132.667 E18.30141
G1 X117.958 Y132.703 E18.34272
G1 X118.652 Y132.706 E18.38653
G1 X119.246 Y132.986 E18.42802
G1 X120.372 Y133.438 E18.50464
G1 X120.229 Y133.997 E18.54108
G1 X118.139 Y133.747 E18.67398
G1 X117.140 Y133.587 E18.73786
G1 X116.117 Y133.372 E18.80389
G1 X114.556 Y132.955 E18.90593
G1 X113.530 Y132.653 E18.97345
G1 X111.763 Y132.093 E19.09047
G1 X102.650 Y129.042 E19.69732
G1 X102.550 Y128.799 E19.71394
G1 X100.165 Y128.268 E19.86818
G1 X99.062 Y128.115 E19.93852
G1 X98.021 Y128.116 E20.00423
G1 X96.873 Y128.413 E20.07910
G1 X95.810 Y129.300 E20.16655
G1 X95.383 Y130.469 E20.24511
G1 X95.377 Y131.272 E20.29586
G1 X95.215 Y131.451 E20.31109
G1 X94.897 Y132.082 E20.35568
G1 X94.785 Y132.789 E20.40092
G1 X94.841 Y133.268 E20.43137
G1 X94.356 Y134.197 E20.49751
G1 X94.153 Y135.053 E20.55310
G1 X94.131 Y135.666 E20.59179
G1 X93.808 Y135.927 E20.61804
G1 X93.471 Y136.108 E20.64219
G1 X92.855 Y136.243 E20.68202
G1 X92.459 Y136.289 E20.70715
G1 X92.112 Y136.302 E20.72911
G1 X91.805 Y136.288 E20.74852
G1 X91.528 Y136.250 E20.76616
G1 X91.271 Y136.192 E20.78284
G1 X90.771 Y136.006 E20.81648
G1 X90.240 Y135.712 E20.85484
G1 X89.952 Y135.516 E20.87684
G1 X89.431 Y135.116 E20.91831
G1 X89.313 Y134.708 E20.94510
G1 X89.206 Y134.121 E20.98279
G1 X89.529 Y133.160 E21.04684
G1 X90.055 Y133.197 E21.08017
G1 X90.564 Y130.905 E21.22845
G1 X90.868 Y130.483 E21.26123
G1 X91.157 Y129.803 E21.30794
G1 X91.344 Y129.090 E21.35445
G1 X91.615 Y127.398 E21.46265
G1 X89.501 Y124.679 E21.68015
G1 X88.211 Y122.905 E21.81866
G1 X87.095 Y121.272 E21.94354
G1 X86.119 Y119.772 E22.05654
G1 X84.455 Y117.123 E22.25408
G1 X83.695 Y115.949 E22.34241
G1 X82.931 Y114.859 E22.42647
G1 X82.119 Y113.847 E22.50838
G1 X81.219 Y112.919 E22.59003
G1 X80.196 Y112.097 E22.67288
G1 X78.979 Y111.373 E22.76231
G1 X78.173 Y111.097 E22.81610
G1 X77.243 Y111.091 E22.87485
G1 X76.490 Y111.331 E22.92474
G1 X76.250 Y111.468 E22.94216
G1 X75.693 Y111.157 E22.98245
G1 X74.988 Y110.971 E23.02847
G1 X74.356 Y110.928 E23.06850
G1 X73.778 Y110.977 E23.10515
G1 X72.665 Y111.224 E23.17714
G1 X72.479 Y110.782 E23.20747
G1 X74.758 Y109.279 E23.37984
G1 X75.193 Y108.957 E23.41405
G1 X75.629 Y108.602 E23.44953
G1 X75.942 Y108.315 E23.47633
G1 X77.007 Y108.076 E23.54525
G1 X77.585 Y107.997 E23.58209
G1 X78.009 Y108.212 E23.61214
G1 X78.277 Y108.324 E23.63044
G1 X79.154 Y108.633 E23.68916
G1 X80.048 Y108.405 E23.74743
G1 X80.723 Y108.384 E23.79009
G1 X81.511 Y108.878 E23.84880
G1 X81.984 Y109.210 E23.88527
G1 X82.879 Y109.894 E23.95642
G1 X83.942 Y110.787 E24.04412
G1 X84.836 Y111.574 E24.11935
G1 X85.345 Y112.050 E24.16332
G1 X85.907 Y112.487 E24.20831
G1 X88.112 Y114.318 E24.38926
G1 X89.595 Y111.534 E24.58846
G1 X89.784 Y111.096 E24.61859
G1 X89.929 Y110.693 E24.64562
G1 X90.340 Y109.358 E24.73382
G1 X91.308 Y108.530 E24.81424
G1 X91.611 Y108.250 E24.84028
G1 X91.921 Y107.924 E24.86871
G1 X92.234 Y107.520 E24.90097
G1 X92.515 Y107.023 E24.93706
G1 X92.714 Y106.459 E24.97482
G1 X92.809 Y105.892 E25.01113
G1 X92.822 Y105.368 E25.04421
G1 X92.773 Y104.816 E25.07921
G1 X92.812 Y104.563 E25.09537
G1 X93.030 Y103.423 E25.16868
G1 X93.522 Y101.209 E25.31191
G1 X93.714 Y100.207 E25.37628
G1 X93.778 Y99.705 E25.40823
G1 X93.799 Y99.123 E25.44502
G1 X93.678 Y98.302 E25.49745
G1 X88.727 Y89.678 E26.12538
G1 X85.527 Y84.170 E26.52758
G1 X83.392 Y80.549 E26.79306
G1 X81.487 Y77.376 E27.02673
G1 X80.583 Y75.895 E27.13630
G1 X79.619 Y74.388 E27.24925
G1 X78.554 Y72.811 E27.36944
G1 X74.234 Y66.644 E27.84488
G1 X73.365 Y65.334 E27.94417
G1 X72.851 Y64.496 E28.00625
G1 X74.611 Y64.629 E28.11773
G1 X77.559 Y64.935 E28.30489
G1 X79.274 Y65.033 E28.41332
G1 X81.200 Y65.386 F7800.000
G1 X72.861 Y62.803
G1 X96.808 Y86.823
G1 X90.943 Y106.334
G1 X87.653 Y111.659
G1 X74.044 Y112.633
G1 X72.323 Y113.797
G1 X70.390 Y113.888
G1 X71.478 Y115.867 F540.000 E28.55591
G1 X71.557 Y115.842 E28.56118
G1 X72.262 Y116.831 E28.63787
G1 X72.965 Y117.907 E28.71900
G1 X73.923 Y119.453 E28.83390
G1 X74.262 Y119.964 E28.87263
G1 X74.632 Y120.475 E28.91243
G1 X75.045 Y120.981 E28.95367
G1 X75.513 Y121.474 E28.99659
G1 X76.524 Y122.340 E29.08067
G1 X76.622 Y123.015 E29.12372
G1 X76.779 Y123.605 E29.16229
G1 X77.021 Y124.269 E29.20690
G1 X77.409 Y125.117 E29.26577
G1 X77.836 Y125.749 E29.31392
G1 X78.475 Y126.346 E29.36918
G1 X78.067 Y126.918 E29.41350
G1 X77.527 Y127.774 E29.47746
G1 X77.068 Y128.600 E29.53706
G1 X76.686 Y129.384 E29.59213
G1 X76.048 Y130.888 E29.69534
G1 X75.443 Y129.121 E29.81327
G1 X74.940 Y128.265 E29.87596
G1 X73.911 Y127.424 E29.95990
G1 X72.326 Y127.278 E30.06041
G1 X71.139 Y127.979 E30.14745
G1 X70.554 Y128.775 E30.20986
G1 X70.259 Y129.512 E30.25994
G1 X69.999 Y130.841 E30.34547
G1 X68.932 Y130.137 E30.42621
G1 X67.682 Y130.072 E30.50528
G1 X66.350 Y130.213 E30.58982
G1 X68.429 Y126.798 E30.84228
G1 X69.405 Y125.121 E30.96480
G1 X70.786 Y126.109 E31.07201
G1 X71.140 Y121.890 E31.33933
G1 X71.215 Y120.746 E31.41173
G1 X71.293 Y118.637 E31.54499
G1 X71.321 Y115.948 E31.71478
G1 X70.302 Y115.901 E31.77921
G1 X69.842 Y114.105 E31.89632
G1 X70.265 Y113.938 E31.92502
G1 X69.420 Y113.868 F7800.000
G1 X69.170 Y113.447 F540.000 E31.95593
G1 X69.446 Y112.915 E31.99378
G1 X69.610 Y112.440 E32.02553
G1 X69.699 Y111.892 E32.06057
G1 X69.693 Y111.296 E32.09821
G1 X69.532 Y110.336 E32.15972
G1 X69.790 Y110.210 E32.17785
G1 X70.606 Y111.098 E32.25407
G1 X72.259 Y109.866 E32.38425
G1 X74.238 Y108.552 E32.53423
G1 X75.045 Y107.927 E32.59872
G1 X75.543 Y107.452 E32.64212
G1 X75.786 Y107.436 E32.65749
G1 X76.043 Y107.388 E32.67404
G1 X76.847 Y107.198 E32.72620
G1 X77.790 Y107.085 E32.78614
G1 X78.376 Y107.398 E32.82812
G1 X79.193 Y107.701 E32.88313
G1 X79.949 Y107.519 E32.93220
G1 X80.485 Y107.505 E32.96609
G1 X80.920 Y107.463 E32.99369
G1 X81.509 Y107.811 E33.03684
G1 X82.011 Y108.138 E33.07470
G1 X82.507 Y108.486 E33.11296
G1 X83.436 Y109.197 E33.18683
G1 X84.218 Y109.845 E33.25092
G1 X85.256 Y110.756 E33.33817
G1 X85.470 Y110.834 E33.35252
G1 X85.575 Y111.052 E33.36782
G1 X85.844 Y111.300 E33.39090
G1 X86.473 Y111.797 E33.44151
G1 X87.839 Y112.931 E33.55366
G1 X88.790 Y111.146 E33.68136
G1 X88.954 Y110.768 E33.70739
G1 X89.082 Y110.410 E33.73137
G1 X89.415 Y109.289 E33.80523
G1 X89.482 Y109.104 E33.81768
G1 X89.611 Y108.851 E33.83560
G1 X89.780 Y108.663 E33.85157
G1 X90.712 Y107.865 E33.92907
G1 X91.243 Y107.342 E33.97615
G1 X91.488 Y107.025 E34.00141
G1 X91.699 Y106.652 E34.02848
G1 X91.846 Y106.234 E34.05644
G1 X91.918 Y105.807 E34.08383
G1 X91.928 Y105.393 E34.10996
G1 X91.870 Y104.813 E34.14676
G1 X91.931 Y104.415 E34.17219
G1 X92.157 Y103.240 E34.24774
G1 X92.750 Y100.533 E34.42275
G1 X92.887 Y99.633 E34.48022
G1 X92.903 Y99.172 E34.50934
G1 X92.819 Y98.598 E34.54596
G1 X89.104 Y92.121 E35.01750
G1 X85.732 Y86.291 E35.44277
G1 X83.628 Y82.700 E35.70561
G1 X81.656 Y79.384 E35.94922
G1 X79.825 Y76.369 E36.17195
G1 X78.873 Y74.879 E36.28361
G1 X77.818 Y73.316 E36.40268
G1 X73.495 Y67.145 E36.87845
G1 X72.612 Y65.814 E36.97929
G1 X71.903 Y64.659 E37.06489
G1 X71.466 Y63.827 E37.12422
G1 X72.578 Y63.661 E37.19523
G1 X73.182 Y63.637 E37.23339
G1 X73.576 Y63.650 E37.25828
G1 X74.697 Y63.740 E37.32934
G1 X77.128 Y64.001 E37.48368
G1 X78.222 Y64.086 E37.55299
G1 X79.668 Y64.143 E37.64435
G1 X81.127 Y64.155 E37.73652
G1 X79.812 Y66.014 E37.88030
G1 X79.832 Y67.540 E37.97667
G1 X80.443 Y68.953 E38.07388
G1 X81.441 Y70.414 E38.18559
G1 X82.806 Y72.052 E38.32025
G1 X87.898 Y78.020 E38.81566
G1 X91.903 Y82.633 E39.20142
G1 X94.042 Y85.036 E39.40453
G1 X96.185 Y87.385 E39.60531
G1 X98.269 Y89.593 E39.79704
G1 X100.233 Y91.575 E39.97321
G1 X102.021 Y93.249 E40.12790
G1 X103.654 Y94.591 E40.26139
G1 X104.538 Y95.019 E40.32337
G1 X105.600 Y95.041 E40.39047
G1 X106.562 Y94.689 E40.45519
G1 X107.420 Y94.114 E40.52042
G1 X108.263 Y93.357 E40.59197
G1 X109.156 Y92.410 E40.67413
G1 X110.139 Y91.262 E40.76954
G1 X111.236 Y89.903 E40.87988
G1 X117.485 Y81.827 E41.52466
G1 X117.375 Y80.385 E41.61598
G1 X117.367 Y79.728 E41.65746
G1 X117.409 Y79.248 E41.68790
G1 X117.497 Y78.841 E41.71418
G1 X117.647 Y78.393 E41.74402
G1 X118.602 Y76.086 E41.90167
G1 X119.072 Y74.832 E41.98629
G1 X119.610 Y73.243 E42.09217
G1 X120.214 Y71.259 E42.22315
G1 X120.912 Y68.716 E42.38969
